img/place_price.svg

<svg width="15" height="19" viewBox="0 0 15 19" fill="none" xmlns="http://www.w3.org/2000/svg">
<path d="M8.5138 13.7295C11.367 13.7295 13 11.959 13 9.39551C13 6.9209 11.4034 5 8.5138 5H3.82726V11.6445H2V13.7295H3.82726V14.7686H2V16.8535H3.82726V19H6.0734V16.8535H8.79912V14.7686H6.0734V13.7295H8.5138ZM6.0734 11.6445V7.10547H8.5138C10.0254 7.10547 10.7539 8.10352 10.7478 9.41602C10.7539 10.7559 10.0375 11.6445 8.46523 11.6445H6.0734Z" fill="#222222"/>
</svg>

<svg width="15" height="19" viewBox="0 0 15 19" fill="none" xmlns="http://www.w3.org/2000/svg"><path d="M8.514 13.73c2.853 0 4.486-1.771 4.486-4.334C13 6.92 11.403 5 8.514 5H3.827v6.645H2v2.085h1.827v1.039H2v2.085h1.827V19h2.246v-2.146H8.8v-2.085H6.073v-1.04h2.44zm-2.44-2.085v-4.54h2.44c1.511 0 2.24.999 2.234 2.311.006 1.34-.71 2.229-2.283 2.229H6.073z" fill="#222"/></svg>
